X: 48
P: No. XLVIII.
M: 6/8
L: 1/8
K: Gdor
V: 1
[|\
{G}FDD DGG | AFF Acc |\
(d/e/f)f fg/f/e | f3- f2g |\
agf {f}edc | agf {f}edc |\
c3 {de}d3 |]|\
{G}FDD DGG | {G}FDD FAA |\
c2c cAF | cAF c2c |\
d2d dAd | cAc dfd |\
cAF fAF | [G3D3] [G3D3] |]
V: 2 clef=bass middle=d
[|\
g3 g3 | a3 f3 | d3 g3 | f3 F3 |\
f3 c3 | f3 c3 | f3 f3 |
a3 d3 |]| d3 g3 | d3 d3 | e3 f3 | a3 f3 |\
b3 b3 | a3 f3 | a3 d3 | g3 G3 |]

